X:1
T:Title
%%score { ( 1 3 ) | ( 2 4 ) }
L:1/8
M:6/8
K:E
V:1 treble nm="Grand Piano"
V:3 treble 
V:2 bass 
V:4 bass 
V:1
 z3 z2[Q:1/4=84] [EG]/[FA]/ | [GB]2 [GB] [GB]>[F^A][GB] | [Ac]2 c B2 z/ F/ | %3
 [B,EG]2 [B,EG] .[^A,EG]2 [A,E] | [DF]3- [DF]2 [DF]/[EG]/ | [FA]2 [FA] [FA]>[EG][FA] | %6
 [DB]2 [DF] G2 G/G/ | FBd c d2 | B6 | [Ge][Gd][Gc] [GB] [Gc]2 | [EG]3 z3 | [GB][Ac][GB] E G2 | %12
 [DF]6 | [B,EG]2 [B,EG] [EGB]2 E |[M:7/8] c2 c e3 d/c/ |[M:3/4] B>A G[DF] [DG]2 |[M:5/8] E-E- E3 |] %17
V:2
 z3 z2 [E,B,] | [E,E]2 [E,E] [E,E]>[E,C][E,B,] | [E,A,]2 [E,A,E] [E,G,E]2 G,/A,/ | %3
 E,2 E, z/ F3/2F, | [B,,B,]3- [B,,B,]2 [B,,B,]/[B,,B,]/ | [B,,B,]2 [B,,B,] [B,,B,]>[B,,B,][B,,B,] | %6
 [B,,F,]2 [B,,B,] [E,B,E]2 [E,B,E]/[E,B,E]/ | [F,B,D][F,B,D][F,B,F] [F,^A,E] [F,A,F]2 | [B,D]6 | %9
 [E,B,][E,B,][E,B,] [E,E] [E,E]2 | .[E,B,]3 .[E,E]3 | [E,E][E,E][E,E] [G,B,] [E,B,E]2 | %12
 [B,,B,]2 B,, B,,2 B,, | E,2 E, E,2 [G,B,] |[M:7/8][K:treble] [A,E]2 [A,E] [A,CA]3 [A,DB]/[A,EA]/ | %15
[M:3/4] [B,EG]>[B,F][K:bass] [B,E][B,,A,] [B,,B,]2 |[M:5/8] [E,G,]-[E,G,]- [E,G,]3 |] %17
V:3
 x6 | x6 | z3 z2 E | x6 | x6 | x6 | x6 | x6 | x6 | x6 | z2 [E,B,] .[GB]3 | x6 | z2 B, B,2 [B,DF] | %13
 x6 |[M:7/8] x7 |[M:3/4] x6 |[M:5/8] x5 |] %17
V:4
 x6 | x6 | z3 z2 E, | z3 .C,3 | x6 | x6 | x6 | x6 | x6 | x6 | x6 | x6 | x6 | x6 | %14
[M:7/8][K:treble] x7 |[M:3/4] x2[K:bass] x4 |[M:5/8] x5 |] %17

